X: 1195
T: Kaleden Kaleye Şahin Uçurdum
C: Abdül Kadir
O: Turkey
F: http://compmusic.upf.edu/node/140
N: gerdaniye--turku--sofyan--kaleden_kaleye--adiyaman
N: makam= gerdaniye
N: form= turku
N: usul= sofyan = 4/4
M: 4/4
L: 1/16
K: C _2/4B ^3/4f  
Q: 1/4=84
%%MIDI tuningsystem comma53
d4 dcdB c4 cBcB  | B4 BAB{c}A A4 d2z2  | \
w:  ARANAĞME  |   | 
d4 dcdB c4 cBcB  | 
w:   | 
B4 BABA A4 A2z2  | g4 gfgf f4 gfgf  | \
w:   |  Ka le *  den  *  ka le *  ye   | 
e4 =feed d4 A4  | 
w:  şa hin_ *  u *  çur dum    | 
e4 =feed d4 A4  | d4 dcd2 c4 cBcB  | \
w:  şa hin_ *  u *  çur dum    |  Ah_ i len  *  vah_ i len   | 
B4 BAB{c}A A4 d2z2  | 
w:  gü nüm  *  ge *  *  çir dim    | 
d4 dcd2 c4 cBcB  | B4 BABA A4 A2z2  | \
w:  Ah_ i len  *  vah_ i len   |  gü nüm  *  ge *  çir dim    | 
g4 gfgf f4 gfgf  | 
w:  Yâ re  *  şe *  ker_ ez *  dim   | 
e4 =feed d4 A4  | e4 =feed d4 A4  | d4 dcdB c4 cBcB  | 
w:  şer bet_ *  i *  çir dim    |  şer bet_ *  i *  çir dim    |  Öyl_ o lur  *  *  böyl_ o lur   | 
B4 BAB{c}A A4 d2z2  | d4 dcdB c4 cBcB  | \
w:  Türk men  *  gü *  *  ze li    |  E dâ *  sı  *  hoş_ o lur   | 
B4 BABA A4 A2z2  | 
w:  Türk men  *  ge *  li ni    | 
d4 dcdB c4 cBcB  | B4 BAB{c}A A4 d2z2  | \
w:  ARANAĞME  |   | 
d4 dcdB c4 cBcB  | 
w:   | 
B4 BABA A4 A2z2  | g4 gfgf f4 gfgf  | \
w:   |  Ka le *  den  *  ka le *  ye   | 
e4 =feed d4 A4  | 
w:  şa hin_ *  u *  çur dum    | 
e4 =feed d4 A4  | d4 dcd2 c4 cBcB  | \
w:  şa hin_ *  u *  çur dum    |  Ah_ i len  *  vah_ i len   | 
B4 BAB{c}A A4 d2z2  | 
w:  gü nüm  *  ge *  *  çir dim    | 
d4 dcd2 c4 cBcB  | B4 BABA A4 A2z2  | \
w:  Ah_ i len  *  vah_ i len   |  gü nüm  *  ge *  çir dim    | 
g4 gfgf f4 gfgf  | 
w:  Yâ re  *  şe *  ker_ ez *  dim   | 
e4 =feed d4 A4  | e4 =feed d4 A4  | d4 dcdB c4 cBcB  | 
w:  şer bet_ *  i *  çir dim    |  şer bet_ *  i *  çir dim    |  Öyl_ o lur  *  *  böyl_ o lur   | 
B4 BAB{c}A A4 d2z2  | d4 dcdB c4 cBcB  | \
w:  Türk men  *  gü *  *  ze li    |  E dâ *  sı  *  hoş_ o lur   | 
B4 BABA A4 A2z2  | 
w:  Türk men  *  ge *  li ni    | 
|


